X: 11252
T: Dusty Miller, The
R: slip jig
M: 9/8
K: Amixolydian
e3 e2d e2d|e3 e2d f2a|e3 e2d e2d|f2d d2e f2a:|
e2 AA2A f2a|e2 AA2A f2a|e2 AA2A e2g|f2d d2e f2a:|

